X: 1
T: la Meuni\`ere au Moulin
R: waltz
S: Qu\'ebec City workshop, from Betsy Hooper
M: 3/4
L: 1/4
K: G
|:\
DEF | GGG | GEF | G3 |\
GAB | ABA | GFE |1 G3 :|2 G2 ||
|: B |\
d2c | BAB | dcB | A2D |\
G2A | BcB | ABA |1 G2 :|2 G3 |]
